X:1
T: The New Fiddle
C:
R:Jig
Q:180
K:E
M:6/8
L:1/16
g4e2 e3de2|B2G2E2 E2G2B2|=d3cB2 A2F2=D2|A,2=D2F2 A2=d2f2|g4e2 e3de2|B2G2E2 E2G2B2|=d3cB2 A2G2F2|E6 E4b2|
g4e2 e3de2|B2G2E2 E2G2B2|=d3cB2 A2F2=D2|A,2=D2F2 A2=d2f2|g4e2 e3de2|B2G2E2 E2G2B2|=d3cB2 A2G2F2|E6 E4b2|
g2b2e2 b2g2e2|B2b2a2 g2f2e2|=d3cB2 A2F2=D2|A,2=D2F2 A2=d2f2|g2b2e2 b2g2e2|B2b2a2 g2f2e2|=d3cB2 A2G2F2|E6 E4b2|
g2b2e2 b2g2e2|B2b2a2 g2f2e2|=d3cB2 A2F2=D2|A,2=D2F2 A2=d2f2|g2b2g2 f2a2f2|e2b2a2 g2f2e2|=d3cB2 A2G2F2|E6E4||
